X:1
T:Sonata 21
T:Sonata 21
T:Johann Christoph Pezel
T:brass quintet
T:public domain - Mutopia-2013/03/23-1649
T:public domain - Mutopia-2013/03/23-1649
T:public domain - Mutopia-2013/03/23-1649
C:Johannes Pezelius
Z:public domain - Mutopia-2013/03/23-1649
%%score [ ( 1 2 ) 3 ( 4 5 ) ]
L:1/8
Q:1/4=79
M:3/2
K:G
V:1 treble nm="Tromba in Do"
V:2 treble 
V:3 bass nm="Corno in Do"
V:4 bass nm="Trombone basso"
V:5 bass 
V:1
"^Adagio" (B6 A2) G4 | z2 F2 G4 G4 | z2 B2 e6 f2 | (^d6 ^c2) B4 | (d2 cd e2) e2 (f2 B2) | %5
 (A2 G2) G6 F2 | G12 | z12 | z12 | z12 | z12 | z12 | z12 | (F2 EF G2) G2 (A2 D2) | %14
 e3 e (d2 c2) B2 c2 | B4 A8 | B12 | z12 | (E2 DE F2) F2 G4 | (A2 GA B2) B2 (c2 d2) | B2 d2 d6 ^c2 | %21
 d4 z4 z4 | c3 c g2 f2 (e2 fe | d4) z4 z2 e2 | d6 c2 B2 A2 | G4 F8 | E12 :: B4 B6 A2 | A6 A2 A4 | %29
 A4 A6 G2 | G6 G2 G4 | G4 G6 F2 | F6 F2 B4 | A4 A8 | G12 | z12 | A12 | e4 e6 e2 | d4 d6 d2 | %39
 c4 c6 c2 | B8 z4 | z12 | z12 | z12 | (E2 F2) .G2 .A2 .B2 .c2 | d6 c2 B4 | e4 e8 | ^d12 | %48
 ^d6 d2 e4 | e4 e6 ^d2 | e12 | z12 | z12 | z12 | (D2 E2) .F2 .G2 .A2 .B2 | c4 c6 c2 | B4 A6 G2 | %57
 F8 z4 | B8 z4 | G6 A2 B4 | A2 G2 F8 | E12 :| %62
V:2
 (G6 F2) E4 | z2 F2 E4 G4 | z2 B2 B6 A2 | (B6 A2) B4 | z12 | z12 | z12 | G2 FG A2 A2 B2 E2 | %8
 F2 E2 E6 ^D2 | E12 | z12 | z12 | z12 | z12 | E3 E (B2 A2) G2 A2 | G4 G6 F2 | G12 | %17
 (d2 cd e2) e2 f2 f2 | g4 z4 z4 | D4 (G2 F2) (E2 F2) | E4 E8 | D3 D A2 G2 (F2 GF) | E4 z8 | %23
 (B2 AB c2) c2 (d2 G2) | F6 F2 F4 | E4 E6 ^D2 | E12 :: G4 G6 G2 | F6 F2 F4 | F4 F6 F2 | E6 E2 E4 | %31
 E4 E6 E2 | D6 D2 G4 | G4 G6 F2 | G12 | (B,2 C2) D2 E2 F2 G2 | (.F2 .G2) .A2 .B2 .c2 .d2 | %37
 G4 G6 G2 | F4 F6 F2 | E4 E6 E2 | D8 z4 | A4 E6 F2 | G2 A2 B2 c2 d2 e2 | f4 f6 f2 | e8 z4 | %45
 F6 F2 G4 | B4 B6 A2 | B12 | F6 F2 G4 | G4 F8 | E12 | z12 | z12 | (E2 F2) .G2 .A2 .B2 .c2 | %54
 d4 z4 z4 | (C2 D2) .E2 .F2 .G2 .A2 | E4 F6 G2 | ^D8 z4 | F8 z4 | E12 | E4 E6 ^D2 | E12 :| %62
V:3
 B,8 B,4 | z2 B,2 B,4 C4 | z2 G,2 G,6 A,2 | F,6 F,2 F,4 | D4 (C2 B,2) (A,2 D2) | E4 D8 | B,12 | %7
 E4 (D2 C2) B,4 | C4 B,8 | B,12 | G,3 G, (D2 C2) (B,2 CB,) | A,3 A, (E2 D2) (C2 DC) | %12
 (B,2 D2) D6 ^C2 | D8 z4 | C4 B,6 A,2 | D2 E2 D8 | B,12 | D3 D C2 B,2 (A,2 B,A,) | %18
 G,3 G, (D2 C2) (B,2 CB,) | A,4 z4 z4 | B,4 A,4 G,4 | F,4 z4 z4 | (C2 B,C D2) D2 (E2 A,2) | %23
 (B,C D2) C2 A,2 (F,2 B,2) | B,12 | B,4 B,8 | B,12 :: B,4 D6 E2 | D6 D2 D4 | D4 C6 D2 | C6 C2 C4 | %31
 E4 B,6 C2 | B,6 B,2 D4 | E4 D8 | B,12 | B,4 B,6 B,2 | A,8 z4 | (E,2 F,2) .G,2 .A,2 .B,2 .C2 | %38
 z12 | (A,2 B,2) .C2 .D2 .E2 .F2 | B,4 F,6 G,2 | (F,2 G,2) .A,2 .B,2 .C2 .D2 | E4 z4 z4 | %43
 (F,2 G,2) .A,2 .B,2 .C2 .D2 | E4 E6 E2 | D6 D2 D4 | G,4 C8 | F,12 | B,6 B,2 B,4 | B,4 B,8 | B,12 | %51
 B,4 B,6 B,2 | A,4 A,6 A,2 | G,4 G,6 G,2 | F,4 F,6 F,2 | E,4 C6 A,2 | B,4 ^D6 E2 | ^D8 z4 | %58
 B,8 z4 | B,6 A,2 G,4 | C4 B,8 | B,12 :| %62
V:4
 G,8 G,4 | z2 B,2 G,4 G,4 | z2 E,2 E,6 E,2 | B,6 B,2 ^D,4 | G,8 F,4 | E,4 A,4 D,4 | D,12 | %7
 B,4 (A,2 D,2) (G,2 E,2) | (E,2 A,2) F,8 | ^G,12 | E,4 (D,2 A,2) (D,3 E,) | F,3 F, (E,2 G,2) A,4 | %12
 B,4 E,8 | F,4 z4 z4 | (E,2 D,E, F,2) F,2 (G,2 C,2) | G,4 D,8 | D,12 | %17
 (F,2 E,F, G,2) G,2 (A,2 D,2) | E,4 (D,2 A,2) D,4 | z4 z4 A,4 | G,4 E,6 A,2 | %21
 (D,2 C,D, E,2 E,2) (F,2 B,,2) | E,4 D,4 z2 D,2 | D,4 A,4 (D,2 G,2) | D,6 E,2 D,4 | z4 F,4 B,4 | %26
 ^G,12 :: G,4 B,6 E,2 | F,6 F,2 F,4 | F,4 A,6 D,2 | E,6 E,2 E,4 | G,4 G,6 G,2 | D,6 D,2 D,4 | %33
 G,4 D,8 | D,12 | (G,,2 .A,,2) .B,,2 .C,2 .D,2 .E,2 | F,4 F,6 F,2 | E,12 | %38
 (D,2 E,2) .F,2 .G,2 .A,2 .B,2 | (C,2 D,2) .E,2 .F,2 .G,2 .A,2 | G,4 D,4 z4 | z12 | B,4 B,6 B,2 | %43
 A,4 A,6 A,2 | G,4 G,6 G,2 | F,6 A,2 D,4 | G,4 E,8 | B,12 | ^D,6 D,2 G,4 | G,4 B,8 | ^G,12 | %51
 G,4 G,6 G,2 | F,4 F,6 F,2 | E,4 E,6 E,2 | D,4 D,6 D,2 | C,4 C,6 C,2 | G,4 A,6 B,2 | B,8 z4 | %58
 F,8 z4 | G,6 F,2 E,4 | E,4 B,8 | ^G,12 :| %62
V:5
 [E,,E,]8 [E,,E,]4 | z2 [^D,,^D,]2 [E,,E,]4 [C,,C,]4 | z2 x2 C,6 [C,,C,]2 | [B,,,B,,]12 | %4
 B,,4 C,4 D,4 | [C,,C,]4 D,,8 | G,,12 | E,,4 F,,4 G,,4 | A,,4 B,,8 | E,,12 | E,,4 F,,4 G,,4 | %11
 D,4 C,2 B,,2 A,,4 | G,,4 A,,8 | (D,2 C,D, E,2) E,2 (F,2 B,,2) | (C,2 B,,C, D,2) D,2 (E,2 A,,2) | %15
 B,,2 C,2 D,8 | G,,12 | [D,,D,]3 [D,,D,] A,,2 G,,2 (F,,2 G,,F,,) | %18
 E,,3 E,, B,,2 A,,2 (G,,2 A,,G,,) | (F,,2 E,,F,, G,,2) G,,2 (A,,2 D,,2) | G,,4 A,,8 | %21
 (B,,2 A,,B,, C,2 C,2) (D,2 G,,2) | (A,,2 G,,A,, B,,2) B,,2 (C,2 F,,2) | %23
 (G,,2 F,,G,, A,,2) A,,2 (B,,2 E,,2) | B,,6 C,2 D,4 | E,4 B,,8 | E,,12 :: E,4 B,,6 C,2 | %28
 D,6 D,2 D,4 | D,4 A,,6 B,,2 | C,6 C,2 C,4 | C,4 G,,6 A,,2 | B,,6 B,,2 B,,4 | C,4 D,8 | G,,12 | %35
 z12 | ([D,,D,]2 E,,2) .F,,2 .G,,2 .A,,2 .B,,2 | C,4 (G,,6 A,,2) | B,,4 (F,,6 G,,2) | A,,4 z4 z4 | %40
 (G,,2 A,,2) .B,,2 .C,2 .D,2 .E,2 | F,4 z4 z4 | E,4 (B,,6 C,2) | D,4 (A,,6 B,,2) | %44
 C,4 (G,,6 A,,2) | (B,,6 A,,2) G,,4 | E,,4 [C,,C,]8 | [B,,,B,,]12 | (B,,6 A,,2) G,,4 | E,,4 B,,8 | %50
 E,,12 | (E,,2 F,,2) .G,,2 .A,,2 .B,,2 .C,2 | D,4 (A,,6 B,,2) | C,4 (G,,6 A,,2) | %54
 B,,4 (F,,6 G,,2) | A,,4 (E,,6 F,,2) | G,,4 (F,,6 E,,2) | B,,8 z4 | ^D,,8 z4 | (E,,6 F,,2) G,,4 | %60
 A,,4 B,,8 | E,,12 :| %62

